src/images/decor/leaf.svg

<svg width="202" height="372" viewBox="0 0 202 372" fill="none" xmlns="http://www.w3.org/2000/svg">
<g opacity="0.7">
<path d="M6.97055 126.123C6.97055 126.123 -6.09616 133.198 13.0919 160.531C32.2799 187.864 44.6937 200.87 44.6937 200.87C44.6937 200.87 48.2848 207.317 42.7773 209.201C37.1287 211.118 24.2776 210.854 22.7271 218.207C21.1016 225.875 27.4375 231.976 38.9239 236.574C50.5513 241.139 75.5371 251.946 77.841 252.894C80.0039 253.875 82.5959 256.688 78.8792 258.599C75.3036 260.477 47.2049 267.501 51.3273 280.664C55.4497 293.827 89.8666 301.088 93.6134 301.847C97.3932 302.746 98.4612 304.132 98.4673 306.064C98.4734 307.996 88.8621 309.502 80.9248 311.806C72.9875 314.111 64.2853 318.23 67.3364 325.546C70.3876 332.863 91.9627 346.252 139.656 344.159L161.714 341.821L170.973 321.659C188.219 277.171 182.585 252.465 176.588 247.177C170.591 241.889 163.917 248.954 159.249 255.697C154.582 262.441 150.062 271.084 148.139 270.493C146.216 269.902 145.289 268.483 145.7 264.521C146.144 260.699 150.321 225.814 139.203 217.709C128.085 209.604 112.512 233.921 109.449 236.72C106.527 239.486 104.574 236.226 104.328 233.904C104.049 231.441 101.999 204.26 101.308 191.781C100.792 179.41 96.9785 171.38 89.194 170.525C81.6915 169.605 77.7474 181.979 74.2349 186.668C70.7224 191.357 65.7124 185.837 65.7124 185.837C65.7124 185.837 57.1742 169.693 37.4883 142.774C17.8023 115.855 6.54759 126.222 6.54759 126.222" fill="#D42428" fill-opacity="0.5"/>
<path d="M163.499 346.906C149.186 327.057 124.187 291.418 102.59 260.782C81.0256 230.287 61.4566 202.597 47.1436 182.748C40.0576 172.807 34.1716 164.816 30.1816 159.207C28.1866 156.402 26.6386 154.236 25.5706 152.85C25.0906 152.071 24.6766 151.573 24.4366 151.183C24.1966 150.793 23.9896 150.544 23.9896 150.544C23.9896 150.544 24.1636 150.652 24.4036 151.042C24.6436 151.432 25.0576 151.93 25.6786 152.676C26.7796 154.203 28.2946 156.228 30.4306 159C34.5286 164.435 40.2736 172.459 47.5336 182.508C61.8466 202.357 81.5236 229.873 103.121 260.509C124.685 291.004 149.576 326.817 163.889 346.666" fill="#D42428"/>
<path d="M40.6929 219.355C40.6929 219.355 41.2898 219.364 42.2348 219.589C43.3207 219.781 44.7216 220.048 46.4375 220.39C50.0433 221.181 54.942 222.414 60.4707 223.797C65.8584 225.212 70.6161 226.478 74.4289 227.519C76.1778 228.002 77.4378 228.302 78.6977 228.601C79.6426 228.826 80.2726 228.976 80.3056 229.117C80.3056 229.117 79.7086 229.108 78.7637 228.883C77.6778 228.691 76.2768 228.425 74.5279 227.942C70.9222 227.15 66.0234 225.917 60.6357 224.502C55.248 223.086 50.3493 221.853 46.7105 220.921C44.9946 220.579 43.5607 220.171 42.4418 219.838C41.1818 219.538 40.6929 219.355 40.6929 219.355Z" fill="#D42428"/>
<path d="M81.5264 227.344C81.3524 227.236 83.4038 216.941 85.9469 204.3C88.6311 191.625 90.8564 181.438 91.1384 181.372C91.3124 181.48 89.2611 191.775 86.7179 204.417C84.0337 217.091 81.7004 227.452 81.5264 227.344Z" fill="#D42428"/>
<path d="M112.481 275.718C112.481 275.718 112.664 275.229 113.17 274.218C113.677 273.207 114.4 271.848 115.231 270.315C116.968 266.934 119.46 262.335 121.854 257.313C124.356 252.118 126.392 247.477 127.955 243.988C128.612 242.347 129.194 241.021 129.668 239.869C130.033 238.891 130.357 238.369 130.357 238.369C130.357 238.369 130.207 238.999 129.842 239.977C129.476 240.955 128.927 242.422 128.303 244.204C126.881 247.66 124.878 252.442 122.376 257.637C119.874 262.833 117.382 267.432 115.471 270.705C114.499 272.271 113.776 273.63 113.236 274.5C112.979 275.304 112.622 275.685 112.481 275.718Z" fill="#D42428"/>
<path d="M74.0084 276.544C74.0084 276.544 74.5724 276.412 75.4513 276.355C76.6122 276.232 77.9471 276.217 79.564 276.136C83.0798 275.908 87.7894 275.698 93.096 275.496C98.4026 275.295 103.145 275.226 106.694 275.139C108.311 275.058 109.679 275.184 110.84 275.061C111.893 275.111 112.349 275.153 112.349 275.153C112.349 275.153 111.785 275.285 110.906 275.343C109.745 275.466 108.41 275.481 106.793 275.562C103.277 275.79 98.5676 276 93.261 276.201C87.9544 276.403 83.2118 276.472 79.663 276.559C78.0461 276.64 76.6782 276.514 75.5173 276.637C74.6384 276.694 74.0414 276.685 74.0084 276.544Z" fill="#D42428"/>
<path d="M95.9692 322.71C95.9692 322.71 96.6742 322.545 97.8681 322.563C99.203 322.548 100.961 322.434 103.142 322.221C107.536 321.935 113.722 321.677 120.471 321.287C127.254 321.037 133.439 320.779 137.867 320.635C139.94 320.596 141.731 320.623 143.174 320.434C144.368 320.452 145.106 320.428 145.106 320.428C145.106 320.428 144.401 320.593 143.207 320.575C141.872 320.59 140.114 320.704 137.933 320.917C133.538 321.202 127.353 321.46 120.603 321.851C113.821 322.1 107.635 322.358 103.208 322.503C101.135 322.542 99.344 322.515 97.9011 322.704C96.7402 322.827 96.0022 322.851 95.9692 322.71Z" fill="#D42428"/>
<path d="M143.879 320.269C143.879 320.269 144.17 319.606 144.785 318.421C145.367 317.095 146.305 315.388 147.319 313.366C149.422 309.007 152.214 303.149 155.265 296.486C158.174 289.856 160.76 283.748 162.547 279.315C163.387 277.185 164.152 275.37 164.734 274.044C165.208 272.892 165.466 272.088 165.64 272.196C165.64 272.196 165.523 272.967 165.049 274.119C164.608 275.412 163.984 277.194 163.177 279.465C161.531 283.865 158.978 290.114 156.036 296.603C153.126 303.232 150.193 309.124 147.916 313.375C146.761 315.43 145.822 317.137 145.208 318.322C144.344 319.714 144.02 320.236 143.879 320.269Z" fill="#D42428"/>
</g>
<path d="M180.485 74.7647C180.623 74.711 180.733 75.6174 180.658 76.6753C180.582 77.7332 180.375 78.6048 180.196 78.5163C180.106 78.4721 180.037 77.7079 180.113 76.65C180.188 75.592 180.347 74.8184 180.485 74.7647Z" fill="#263238"/>
<path d="M177.198 60.8536C177.336 60.8 178.116 62.158 178.882 63.996C179.51 65.8877 179.828 67.5046 179.69 67.5583C179.552 67.6119 179.096 66.0487 178.42 64.2549C177.702 62.319 177.06 60.9073 177.198 60.8536Z" fill="#263238"/>
<path d="M168.22 50.3432C168.268 50.2453 169.703 50.9528 171.077 52.2383C172.539 53.5679 173.457 54.8723 173.319 54.926C173.181 54.9796 172.119 53.969 170.745 52.6835C169.372 51.3981 168.124 50.539 168.22 50.3432Z" fill="#263238"/>
<path d="M155.243 46.135C155.202 45.9929 156.844 45.8288 158.789 46.1796C160.734 46.5303 162.128 47.0958 162.032 47.2916C161.983 47.3895 160.493 47.0198 158.637 46.7133C156.733 46.5046 155.236 46.375 155.243 46.135Z" fill="#263238"/>
<path d="M141.426 49.0578C141.385 48.9157 142.82 48.0411 144.654 47.4855C146.537 46.832 148.179 46.668 148.221 46.8101C148.262 46.9522 146.703 47.4005 144.82 48.0539C142.985 48.6095 141.468 49.1999 141.426 49.0578Z" fill="#263238"/>
<path d="M130.115 58.205C130.025 58.1608 130.308 57.8134 130.687 57.2703C131.067 56.7272 131.68 55.9346 132.384 55.1862C133.791 53.6895 135.226 52.8149 135.315 52.8592C135.357 53.0013 134.143 54.1064 132.784 55.5052C132.081 56.2536 131.426 56.9041 130.957 57.403C130.439 57.9998 130.115 58.205 130.115 58.205Z" fill="#263238"/>
<path d="M125.49 72.1089C125.352 72.1626 125.082 70.4478 125.413 68.4204C125.744 66.3931 126.426 64.7826 126.605 64.871C126.785 64.9595 126.24 66.5163 125.91 68.5436C125.538 70.4289 125.628 72.0553 125.49 72.1089Z" fill="#263238"/>
<path d="M133.936 82.1145C133.888 82.2124 132.301 82.0385 130.645 81.1004C128.9 80.1181 128.03 78.7158 128.168 78.6622C128.306 78.6085 129.32 79.717 131.024 80.5573C132.453 81.5048 133.943 81.8745 133.936 82.1145Z" fill="#263238"/>
<path d="M147.228 78.4464C147.318 78.4906 146.187 79.88 144.387 80.8177C142.587 81.7554 140.896 82.0173 140.945 81.9194C140.903 81.7773 142.462 81.3291 144.173 80.3471C145.835 79.4631 147.049 78.3579 147.228 78.4464Z" fill="#263238"/>
<path d="M153.109 65.1616C153.247 65.108 153.289 66.8322 152.821 68.9133C152.352 70.9943 151.49 72.5164 151.4 72.4721C151.221 72.3837 151.855 70.8711 152.276 68.8879C152.792 66.709 153.02 65.1174 153.109 65.1616Z" fill="#263238"/>
<path d="M149.822 51.2502C149.96 51.1966 150.926 52.403 151.693 54.241C152.41 56.177 152.638 57.7497 152.59 57.8475C152.452 57.9012 151.859 56.3916 151.182 54.5978C150.416 52.7598 149.774 51.3481 149.822 51.2502Z" fill="#263238"/>
<path d="M140.141 41.488C140.19 41.3901 141.625 42.0977 143.046 43.2852C144.557 44.517 145.523 45.7235 145.475 45.8214C145.427 45.9192 144.226 44.9622 142.715 43.7305C141.294 42.5429 140.093 41.5859 140.141 41.488Z" fill="#263238"/>
<path d="M127.661 35.8212C127.709 35.7233 129.247 35.9951 131.048 36.6395C132.849 37.2839 134.235 38.0894 134.187 38.1873C134.139 38.2851 132.697 37.8176 130.896 37.1732C129.096 36.5288 127.564 36.017 127.661 35.8212Z" fill="#263238"/>
<path d="M113.932 34.0417C113.891 33.8996 115.533 33.7356 117.485 33.8463C119.437 33.9571 120.927 34.3267 120.879 34.4246C120.831 34.5225 119.286 34.4907 117.333 34.38C115.471 34.3135 113.925 34.2817 113.932 34.0417Z" fill="#263238"/>
<path d="M99.9633 35.9159C99.9219 35.7737 101.439 35.1834 103.405 34.8141C105.371 34.4449 106.965 34.3787 106.917 34.4766C106.958 34.6187 105.358 34.9249 103.481 35.3383C101.605 35.7518 100.005 36.058 99.9633 35.9159Z" fill="#263238"/>
<path d="M86.6231 41.2642C86.5817 41.1221 87.9267 40.2032 89.7684 39.4076C91.61 38.612 93.1276 38.0217 93.169 38.1638C93.2104 38.3059 91.7343 39.0384 89.9823 39.8782C88.1407 40.6738 86.7128 41.3084 86.6231 41.2642Z" fill="#263238"/>
<path d="M74.7392 49.7639C74.6977 49.6218 75.7322 48.4282 77.4082 47.0642C78.9462 45.7538 80.3809 44.8792 80.512 45.0655C80.5534 45.2076 79.2499 46.2686 77.7601 47.4811C76.0842 48.8451 74.7806 49.906 74.7392 49.7639Z" fill="#263238"/>
<path d="M65.8017 61.7852C65.712 61.741 66.3946 60.1305 67.4013 58.3148C68.4977 56.5433 69.5804 55.2518 69.6701 55.2961C69.7598 55.3403 68.8082 56.8181 67.8498 58.5359C66.843 60.3516 65.9811 61.8737 65.8017 61.7852Z" fill="#263238"/>
<path d="M60.4934 75.7176C60.4037 75.6734 60.6792 73.9839 61.2789 72.0892C61.9269 70.0966 62.6508 68.6282 62.7405 68.6725C62.8302 68.7167 62.3753 70.3177 61.7273 72.3103C61.2173 74.2493 60.6727 75.8061 60.4934 75.7176Z" fill="#263238"/>
<path d="M57.6203 90.3639C57.4824 90.4176 57.6682 88.6839 57.9988 86.6565C58.3294 84.6292 58.6946 82.9839 58.874 83.0723C58.9637 83.1166 58.8262 84.7524 58.4955 86.7797C58.0752 88.7629 57.71 90.4082 57.6203 90.3639Z" fill="#263238"/>
<path d="M56.472 105.13C56.3341 105.184 56.2922 103.46 56.3952 101.442C56.4982 99.424 56.684 97.6903 56.8634 97.7787C57.0014 97.725 57.0432 99.4493 56.9402 101.467C56.7475 103.441 56.5617 105.175 56.472 105.13Z" fill="#263238"/>
<path d="M56.8274 119.787C56.6895 119.84 56.5097 118.17 56.385 116.161C56.2603 114.153 56.3082 112.473 56.4462 112.419C56.5841 112.366 56.7639 114.036 56.8886 116.045C56.965 118.151 57.0068 119.875 56.8274 119.787Z" fill="#263238"/>
<path d="M58.3341 130.751C58.1961 130.805 57.8993 130.05 57.7473 129.002C57.5953 127.953 57.5261 127.189 57.664 127.135C57.802 127.082 58.0506 127.934 58.2508 128.885C58.4511 129.835 58.472 130.698 58.3341 130.751Z" fill="#263238"/>
</svg>

<svg width="202" height="372" viewBox="0 0 202 372" fill="none" xmlns="http://www.w3.org/2000/svg"><g opacity=".7" fill="#D42428"><path d="M6.97 126.123s-13.066 7.075 6.122 34.408c19.188 27.333 31.602 40.339 31.602 40.339s3.59 6.447-1.917 8.331c-5.648 1.917-18.5 1.653-20.05 9.006-1.625 7.668 4.71 13.769 16.197 18.367 11.627 4.565 36.613 15.372 38.917 16.32 2.163.981 4.755 3.794 1.038 5.705-3.575 1.878-31.674 8.902-27.552 22.065 4.123 13.163 38.54 20.424 42.286 21.183 3.78.899 4.848 2.285 4.854 4.217.006 1.932-9.605 3.438-17.542 5.742-7.938 2.305-16.64 6.424-13.589 13.74 3.052 7.317 24.627 20.706 72.32 18.613l22.058-2.338 9.259-20.162c17.246-44.488 11.612-69.194 5.615-74.482-5.997-5.288-12.671 1.777-17.339 8.52-4.667 6.744-9.187 15.387-11.11 14.796-1.923-.591-2.85-2.01-2.439-5.972.444-3.822 4.621-38.707-6.497-46.812-11.118-8.105-26.691 16.212-29.754 19.011-2.922 2.766-4.875-.494-5.121-2.816-.279-2.463-2.329-29.644-3.02-42.123-.516-12.371-4.33-20.401-12.114-21.256-7.502-.92-11.447 11.454-14.96 16.143-3.512 4.689-8.522-.831-8.522-.831s-8.538-16.144-28.224-43.063c-19.686-26.919-30.94-16.552-30.94-16.552" fill-opacity=".5"/><path d="M163.499 346.906c-14.313-19.849-39.312-55.488-60.909-86.124-21.564-30.495-41.133-58.185-55.446-78.034-7.086-9.941-12.972-17.932-16.962-23.541-1.995-2.805-3.543-4.971-4.611-6.357-.48-.779-.894-1.277-1.134-1.667a6.089 6.089 0 00-.447-.639s.174.108.414.498.654.888 1.275 1.634c1.1 1.527 2.616 3.552 4.752 6.324 4.098 5.435 9.843 13.459 17.103 23.508a9222.325 9222.325 0 0155.587 78.001c21.564 30.495 46.455 66.308 60.768 86.157M40.693 219.355s.597.009 1.542.234c1.086.192 2.487.459 4.203.801 3.605.791 8.504 2.024 14.033 3.407a1555.624 1555.624 0 0113.958 3.722c1.749.483 3.009.783 4.269 1.082.945.225 1.575.375 1.608.516 0 0-.597-.009-1.542-.234a44.087 44.087 0 01-4.236-.941c-3.606-.792-8.505-2.025-13.892-3.44-5.388-1.416-10.287-2.649-13.925-3.581a46.385 46.385 0 01-4.27-1.083c-1.26-.3-1.748-.483-1.748-.483zM81.526 227.344c-.174-.108 1.878-10.403 4.42-23.044 2.685-12.675 4.91-22.862 5.192-22.928.174.108-1.877 10.403-4.42 23.045-2.684 12.674-5.018 23.035-5.192 22.927z"/><path d="M112.481 275.718s.183-.489.689-1.5c.507-1.011 1.23-2.37 2.061-3.903 1.737-3.381 4.229-7.98 6.623-13.002 2.502-5.195 4.538-9.836 6.101-13.325.657-1.641 1.239-2.967 1.713-4.119.365-.978.689-1.5.689-1.5s-.15.63-.515 1.608a202.63 202.63 0 00-1.539 4.227c-1.422 3.456-3.425 8.238-5.927 13.433-2.502 5.196-4.994 9.795-6.905 13.068-.972 1.566-1.695 2.925-2.235 3.795-.257.804-.614 1.185-.755 1.218zM74.008 276.544s.564-.132 1.443-.189c1.161-.123 2.496-.138 4.113-.219 3.516-.228 8.225-.438 13.532-.64 5.307-.201 10.049-.27 13.598-.357 1.617-.081 2.985.045 4.146-.078 1.053.05 1.509.092 1.509.092s-.564.132-1.443.19c-1.161.123-2.496.138-4.113.219-3.516.228-8.225.438-13.532.639-5.307.202-10.05.271-13.598.358-1.617.081-2.985-.045-4.146.078-.879.057-1.476.048-1.509-.093zM95.97 322.71s.704-.165 1.898-.147c1.335-.015 3.093-.129 5.274-.342 4.394-.286 10.58-.544 17.329-.934 6.783-.25 12.968-.508 17.396-.652 2.073-.039 3.864-.012 5.307-.201 1.194.018 1.932-.006 1.932-.006s-.705.165-1.899.147c-1.335.015-3.093.129-5.274.342-4.395.285-10.58.543-17.33.934-6.782.249-12.968.507-17.395.652-2.073.039-3.864.012-5.307.201-1.16.123-1.899.147-1.932.006zM143.879 320.269s.291-.663.906-1.848c.582-1.326 1.52-3.033 2.534-5.055a929.592 929.592 0 007.946-16.88c2.909-6.63 5.495-12.738 7.282-17.171.84-2.13 1.605-3.945 2.187-5.271.474-1.152.732-1.956.906-1.848 0 0-.117.771-.591 1.923a472.268 472.268 0 01-1.872 5.346c-1.646 4.4-4.199 10.649-7.141 17.138-2.91 6.629-5.843 12.521-8.12 16.772-1.155 2.055-2.094 3.762-2.708 4.947-.864 1.392-1.188 1.914-1.329 1.947z"/></g><path d="M180.485 74.765c.138-.054.248.852.173 1.91-.076 1.058-.283 1.93-.462 1.841-.09-.044-.159-.808-.083-1.866.075-1.058.234-1.832.372-1.885zM177.198 60.854c.138-.054.918 1.304 1.684 3.142.628 1.892.946 3.509.808 3.562-.138.054-.594-1.51-1.27-3.303-.718-1.936-1.36-3.348-1.222-3.401zM168.22 50.343c.048-.098 1.483.61 2.857 1.895 1.462 1.33 2.38 2.634 2.242 2.688-.138.054-1.2-.957-2.574-2.242-1.373-1.286-2.621-2.145-2.525-2.34zM155.243 46.135c-.041-.142 1.601-.306 3.546.045 1.945.35 3.339.916 3.243 1.112-.049.097-1.539-.272-3.395-.579-1.904-.208-3.401-.338-3.394-.578zM141.426 49.058c-.041-.142 1.394-1.017 3.228-1.572 1.883-.654 3.525-.818 3.567-.676.041.142-1.518.59-3.401 1.244-1.835.555-3.352 1.146-3.394 1.004zM130.115 58.205c-.09-.044.193-.392.572-.935.38-.543.993-1.335 1.697-2.084 1.407-1.496 2.842-2.371 2.931-2.327.042.142-1.172 1.247-2.531 2.646-.703.749-1.358 1.4-1.827 1.898-.518.597-.842.802-.842.802zM125.49 72.109c-.138.054-.408-1.661-.077-3.689.331-2.027 1.013-3.637 1.192-3.549.18.089-.365 1.645-.695 3.673-.372 1.885-.282 3.511-.42 3.565zM133.936 82.115c-.048.097-1.635-.076-3.291-1.015-1.745-.982-2.615-2.384-2.477-2.438.138-.053 1.152 1.055 2.856 1.895 1.429.948 2.919 1.317 2.912 1.558zM147.228 78.446c.09.045-1.041 1.434-2.841 2.372-1.8.937-3.491 1.2-3.442 1.101-.042-.142 1.517-.59 3.228-1.572 1.662-.884 2.876-1.99 3.055-1.9zM153.109 65.162c.138-.054.18 1.67-.288 3.751-.469 2.081-1.331 3.603-1.421 3.56-.179-.09.455-1.602.876-3.585.516-2.179.744-3.77.833-3.726zM149.822 51.25c.138-.053 1.104 1.153 1.871 2.991.717 1.936.945 3.509.897 3.606-.138.054-.731-1.455-1.408-3.25-.766-1.837-1.408-3.249-1.36-3.347zM140.141 41.488c.049-.098 1.484.61 2.905 1.797 1.511 1.232 2.477 2.439 2.429 2.536-.048.098-1.249-.859-2.76-2.09-1.421-1.188-2.622-2.145-2.574-2.243zM127.661 35.821c.048-.098 1.586.174 3.387.819 1.801.644 3.187 1.45 3.139 1.547-.048.098-1.49-.37-3.291-1.014-1.8-.644-3.332-1.156-3.235-1.352zM113.932 34.042c-.041-.142 1.601-.306 3.553-.196 1.952.111 3.442.48 3.394.579-.048.098-1.593.066-3.546-.045-1.862-.067-3.408-.098-3.401-.338zM99.963 35.916c-.041-.142 1.476-.733 3.442-1.102 1.966-.37 3.56-.435 3.512-.337.041.142-1.559.448-3.436.861-1.876.414-3.476.72-3.518.578zM86.623 41.264c-.041-.142 1.304-1.06 3.145-1.856 1.842-.796 3.36-1.386 3.401-1.244.041.142-1.435.874-3.187 1.714-1.841.796-3.27 1.43-3.359 1.386zM74.74 49.764c-.042-.142.992-1.336 2.668-2.7 1.538-1.31 2.973-2.185 3.104-1.998.041.142-1.262 1.203-2.752 2.415-1.676 1.364-2.98 2.425-3.02 2.283zM65.802 61.785c-.09-.044.593-1.654 1.6-3.47 1.096-1.772 2.178-3.063 2.268-3.019.09.044-.862 1.522-1.82 3.24-1.007 1.816-1.869 3.338-2.048 3.25zM60.493 75.718c-.09-.045.186-1.734.786-3.629.648-1.992 1.372-3.46 1.461-3.416.09.044-.365 1.645-1.013 3.637-.51 1.94-1.054 3.496-1.234 3.408zM57.62 90.364c-.138.054.048-1.68.379-3.708.33-2.027.696-3.672.875-3.584.09.045-.048 1.68-.379 3.708-.42 1.983-.785 3.628-.875 3.584zM56.472 105.13c-.138.054-.18-1.67-.077-3.688.103-2.018.289-3.752.468-3.663.138-.054.18 1.67.077 3.688-.192 1.974-.378 3.708-.468 3.663zM56.827 119.787c-.137.053-.317-1.617-.442-3.626-.125-2.008-.077-3.688.061-3.742.138-.053.318 1.617.443 3.626.076 2.106.118 3.83-.062 3.742zM58.334 130.751c-.138.054-.435-.701-.587-1.749-.152-1.049-.22-1.813-.083-1.867.138-.053.387.799.587 1.75.2.95.221 1.813.083 1.866z" fill="#263238"/></svg>
